_includes/icons/ios-apple-ipad.svg

<svg fill="#666" height="50" viewBox="0 0 50 50" width="50" xmlns="http://www.w3.org/2000/svg"><path d="m6 6c-1.863281 0-3.390625.921875-4.40625 2.09375s-1.59375 2.585938-1.59375 3.90625v26.375c0 3.089844 2.535156 5.625 5.625 5.625h38.75c3.089844 0 5.625-2.535156 5.625-5.625v-26.53125c0-3.1875-2.851562-5.84375-6-5.84375zm0 2h38c1.949219 0 4 1.9375 4 3.84375v26.53125c0 2.007813-1.617187 3.625-3.625 3.625h-38.75c-2.011719 0-3.625-1.613281-3.625-3.625v-26.375c0-.679687.378906-1.765625 1.09375-2.59375s1.691406-1.40625 2.90625-1.40625zm.8125 2c-.476562.089844-.820312.511719-.8125 1v28c0 .550781.449219 1 1 1h37c.550781 0 1-.449219 1-1v-28c0-.550781-.449219-1-1-1h-37c-.03125 0-.0625 0-.09375 0s-.0625 0-.09375 0zm1.1875 2h35v26h-35zm-4 11.5c-.828125 0-1.5.671875-1.5 1.5s.671875 1.5 1.5 1.5 1.5-.671875 1.5-1.5-.671875-1.5-1.5-1.5z"/></svg>

<svg xmlns="http://www.w3.org/2000/svg" viewBox="0 0 50 50" width="50" height="50" fill="#666"><path d="M 6 6 C 4.136719 6 2.609375 6.921875 1.59375 8.09375 C 0.578125 9.265625 0 10.679688 0 12 L 0 38.375 C 0 41.464844 2.535156 44 5.625 44 L 44.375 44 C 47.464844 44 50 41.464844 50 38.375 L 50 11.84375 C 50 8.65625 47.148438 6 44 6 Z M 6 8 L 44 8 C 45.949219 8 48 9.9375 48 11.84375 L 48 38.375 C 48 40.382813 46.382813 42 44.375 42 L 5.625 42 C 3.613281 42 2 40.386719 2 38.375 L 2 12 C 2 11.320313 2.378906 10.234375 3.09375 9.40625 C 3.808594 8.578125 4.785156 8 6 8 Z M 6.8125 10 C 6.335938 10.089844 5.992188 10.511719 6 11 L 6 39 C 6 39.550781 6.449219 40 7 40 L 44 40 C 44.550781 40 45 39.550781 45 39 L 45 11 C 45 10.449219 44.550781 10 44 10 L 7 10 C 6.96875 10 6.9375 10 6.90625 10 C 6.875 10 6.84375 10 6.8125 10 Z M 8 12 L 43 12 L 43 38 L 8 38 Z M 4 23.5 C 3.171875 23.5 2.5 24.171875 2.5 25 C 2.5 25.828125 3.171875 26.5 4 26.5 C 4.828125 26.5 5.5 25.828125 5.5 25 C 5.5 24.171875 4.828125 23.5 4 23.5 Z"/></svg>
